img/portfolio/arrow.svg

<svg width="15" height="14" viewBox="0 0 15 14" fill="none" xmlns="http://www.w3.org/2000/svg">
<path d="M9.03125 12.9375C9.34375 12.625 9.3125 12.1562 9.03125 11.8438L5.25 8.25H14.25C14.6562 8.25 15 7.9375 15 7.5V6.5C15 6.09375 14.6562 5.75 14.25 5.75H5.25L9.03125 2.1875C9.3125 1.875 9.34375 1.40625 9.03125 1.09375L8.34375 0.40625C8.0625 0.125 7.5625 0.125 7.28125 0.40625L1.21875 6.5C0.90625 6.78125 0.90625 7.25 1.21875 7.53125L7.28125 13.625C7.5625 13.9062 8.03125 13.9062 8.34375 13.625L9.03125 12.9375Z" fill="#959EAD"/>
</svg>

<svg width="15" height="14" fill="none" xmlns="http://www.w3.org/2000/svg"><path d="M9.031 12.938c.313-.313.281-.782 0-1.094L5.25 8.25h9A.74.74 0 0 0 15 7.5v-1a.76.76 0 0 0-.75-.75h-9l3.781-3.563c.281-.312.313-.78 0-1.093L8.344.406a.774.774 0 0 0-1.063 0L1.22 6.5a.684.684 0 0 0 0 1.031l6.062 6.094c.282.281.75.281 1.063 0l.687-.688z" fill="#959EAD"/></svg>
